images/logo-white.svg

<svg xmlns="http://www.w3.org/2000/svg" fill="none" viewBox="0 0 148 114">
  <path stroke="#fff" stroke-width="6" d="M7 3h136v102H7z"/>
  <path fill="#fff" d="M22.1545 37.25c-2.5667 0-4.8834-.5-6.95-1.5-2.0667-1-3.85-2.35-5.35004-4.05-1.5-1.7333-2.66667-3.6667-3.5-5.8-.8-2.1667-1.2-4.3833-1.2-6.65 0-2.3667.43333-4.6167 1.3-6.75.86666-2.1667 2.06666-4.08333 3.60004-5.75 1.5333-1.7 3.3333-3.03333 5.4-4 2.1-1 4.3666-1.5 6.8-1.5 2.5333 0 4.8333.51667 6.9 1.55 2.1 1.03333 3.8833 2.41666 5.35 4.15 1.5 1.73333 2.65 3.6667 3.45 5.8.8333 2.1333 1.25 4.3167 1.25 6.55 0 2.3667-.4334 4.6333-1.3 6.8-.8334 2.1333-2.0167 4.05-3.55 5.75-1.5334 1.6667-3.35 2.9833-5.45 3.95-2.0667.9667-4.3167 1.45-6.75 1.45Zm-11.3-18c0 1.6667.2666 3.2833.8 4.85.5333 1.5667 1.2833 2.9667 2.25 4.2 1 1.2 2.2 2.15 3.6 2.85 1.4.7 2.9666 1.05 4.7 1.05 1.8 0 3.4-.3667 4.8-1.1 1.4-.7333 2.5666-1.7167 3.5-2.95.9666-1.2667 1.7-2.6667 2.2-4.2.5-1.5667.75-3.1333.75-4.7 0-1.6667-.2667-3.2667-.8-4.8-.5-1.5667-1.25-2.95-2.25-4.15-1-1.23334-2.2-2.2-3.6-2.9-1.3667-.7-2.9-1.05-4.6-1.05-1.8 0-3.4.36667-4.8 1.1s-2.5834 1.71667-3.55 2.95c-.9667 1.2333-1.7167 2.6167-2.25 4.15-.5 1.5333-.75 3.1-.75 4.7ZM90.1521 1.5V37h-5.65V21.35h-17.9V37h-5.6V1.5h5.6v14.85h17.9V1.5h5.65ZM128.91 37.25c-2.566 0-4.883-.5-6.95-1.5-2.066-1-3.85-2.35-5.35-4.05-1.5-1.7333-2.666-3.6667-3.5-5.8-.8-2.1667-1.2-4.3833-1.2-6.65 0-2.3667.434-4.6167 1.3-6.75.867-2.1667 2.067-4.08333 3.6-5.75 1.534-1.7 3.334-3.03333 5.4-4 2.1-1 4.367-1.5 6.8-1.5 2.534 0 4.834.51667 6.9 1.55 2.1 1.03333 3.884 2.41666 5.35 4.15 1.5 1.73333 2.65 3.6667 3.45 5.8.834 2.1333 1.25 4.3167 1.25 6.55 0 2.3667-.433 4.6333-1.3 6.8-.833 2.1333-2.016 4.05-3.55 5.75-1.533 1.6667-3.35 2.9833-5.45 3.95-2.066.9667-4.316 1.45-6.75 1.45Zm-11.3-18c0 1.6667.267 3.2833.8 4.85.534 1.5667 1.284 2.9667 2.25 4.2 1 1.2 2.2 2.15 3.6 2.85 1.4.7 2.967 1.05 4.7 1.05 1.8 0 3.4-.3667 4.8-1.1 1.4-.7333 2.567-1.7167 3.5-2.95.967-1.2667 1.7-2.6667 2.2-4.2.5-1.5667.75-3.1333.75-4.7 0-1.6667-.266-3.2667-.8-4.8-.5-1.5667-1.25-2.95-2.25-4.15-1-1.23334-2.2-2.2-3.6-2.9-1.366-.7-2.9-1.05-4.6-1.05-1.8 0-3.4.36667-4.8 1.1s-2.583 1.71667-3.55 2.95c-.966 1.2333-1.716 2.6167-2.25 4.15-.5 1.5333-.75 3.1-.75 4.7Zm-83.895 22.2h-11.8V72h-5.65V41.45H4.41504V36.5H33.715v4.95Zm34.6106 25.6V72h-24.35V36.5h23.9v4.95h-18.3v10.1h15.85v4.65h-15.85v10.85h18.75ZM79.6525 72V36.5h24.9505v4.9H85.2525v9.95h10.4c3.9334 0 6.8835.9333 8.8505 2.8 1.966 1.8333 2.95 4.2667 2.95 7.3 0 2.0333-.434 3.85-1.3 5.45-.834 1.5667-2.1 2.8167-3.8 3.75-1.667.9-3.7838 1.35-6.3505 1.35h-16.35Zm5.6-4.9h10c1.5334 0 2.7667-.2833 3.7-.85.9667-.5667 1.6505-1.2833 2.0505-2.15.433-.9.65-1.8333.65-2.8 0-.9667-.184-1.8667-.55-2.7-.367-.8333-1.034-1.5-2.0005-2-.9333-.5333-2.25-.8-3.95-.8h-9.9v11.3Zm57.3055-.05V72h-24.35V36.5h23.9v4.95h-18.3v10.1h15.85v4.65h-15.85v10.85h18.75ZM33.5904 71.5V107h-5.65V91.35h-17.9V107H4.44043V71.5h5.59997v14.85h17.9V71.5h5.65Zm19.2582 0h5.3l13.8 35.5h-5.9l-3.75-9.65h-13.7l-3.7 9.65h-5.95l13.9-35.5Zm8.35 21.7-5.7-15.55-5.9 15.55h11.6Zm10.5403 20.6v-11.75h1.7c.9333 0 1.7333-.367 2.4-1.1.7-.733 1.2833-1.9 1.75-3.5.5-1.6.8833-3.7 1.15-6.3.3-2.6333.5166-5.85.65-9.65l.25-10h22.8501v30.55h4.5v11.75h-4.95V107H76.6889v6.8h-4.95Zm8.8-11.75h16.3v-25.6h-12l-.15 5.8c-.1 3.8333-.3 7.0833-.6 9.75-.3 2.6333-.7334 4.7667-1.3 6.4-.5667 1.633-1.3167 2.85-2.25 3.65Zm48.1731 5.2c-2.567 0-4.883-.5-6.95-1.5s-3.85-2.35-5.35-4.05c-1.5-1.7333-2.667-3.6667-3.5-5.8-.8-2.1667-1.2-4.3833-1.2-6.65 0-2.3667.433-4.6167 1.3-6.75.867-2.1667 2.067-4.0833 3.6-5.75 1.533-1.7 3.333-3.0333 5.4-4 2.1-1 4.367-1.5 6.8-1.5 2.533 0 4.833.5167 6.9 1.55 2.1 1.0333 3.883 2.4167 5.35 4.15 1.5 1.7333 2.65 3.6667 3.45 5.8.833 2.1333 1.25 4.3167 1.25 6.55 0 2.3667-.433 4.6333-1.3 6.8-.833 2.1333-2.017 4.05-3.55 5.75-1.533 1.667-3.35 2.983-5.45 3.95-2.067.967-4.317 1.45-6.75 1.45Zm-11.3-18c0 1.6667.267 3.2833.8 4.85.533 1.5667 1.283 2.9667 2.25 4.2 1 1.2 2.2 2.15 3.6 2.85 1.4.7 2.967 1.05 4.7 1.05 1.8 0 3.4-.367 4.8-1.1 1.4-.733 2.567-1.7167 3.5-2.95.967-1.2667 1.7-2.6667 2.2-4.2.5-1.5667.75-3.1333.75-4.7 0-1.6667-.267-3.2667-.8-4.8-.5-1.5667-1.25-2.95-2.25-4.15-1-1.2333-2.2-2.2-3.6-2.9-1.367-.7-2.9-1.05-4.6-1.05-1.8 0-3.4.3667-4.8 1.1-1.4.7333-2.583 1.7167-3.55 2.95-.967 1.2333-1.717 2.6167-2.25 4.15-.5 1.5333-.75 3.1-.75 4.7Z"/>
</svg>

<svg width="148" height="114" viewBox="0 0 148 114" fill="none" xmlns="http://www.w3.org/2000/svg">
<path d="M7 3H143V105H7V3Z" stroke="white" stroke-width="6"/>
<path d="M22.1555 37.25C19.5888 37.25 17.2721 36.75 15.2055 35.75C13.1388 34.75 11.3555 33.4 9.85544 31.7C8.35544 29.9667 7.18877 28.0333 6.35544 25.9C5.55544 23.7333 5.15544 21.5167 5.15544 19.25C5.15544 16.8833 5.58877 14.6333 6.45544 12.5C7.3221 10.3333 8.5221 8.41667 10.0555 6.75C11.5888 5.05 13.3888 3.71667 15.4555 2.75C17.5555 1.75 19.8221 1.25 22.2555 1.25C24.7888 1.25 27.0888 1.76667 29.1555 2.8C31.2555 3.83333 33.0388 5.21666 34.5055 6.95C36.0055 8.68333 37.1555 10.6167 37.9555 12.75C38.7888 14.8833 39.2055 17.0667 39.2055 19.3C39.2055 21.6667 38.7721 23.9333 37.9055 26.1C37.0721 28.2333 35.8888 30.15 34.3555 31.85C32.8221 33.5167 31.0055 34.8333 28.9055 35.8C26.8388 36.7667 24.5888 37.25 22.1555 37.25ZM10.8555 19.25C10.8555 20.9167 11.1221 22.5333 11.6555 24.1C12.1888 25.6667 12.9388 27.0667 13.9055 28.3C14.9055 29.5 16.1055 30.45 17.5055 31.15C18.9055 31.85 20.4721 32.2 22.2055 32.2C24.0055 32.2 25.6055 31.8333 27.0055 31.1C28.4055 30.3667 29.5721 29.3833 30.5055 28.15C31.4721 26.8833 32.2055 25.4833 32.7055 23.95C33.2055 22.3833 33.4555 20.8167 33.4555 19.25C33.4555 17.5833 33.1888 15.9833 32.6555 14.45C32.1555 12.8833 31.4055 11.5 30.4055 10.3C29.4055 9.06666 28.2055 8.1 26.8055 7.4C25.4388 6.7 23.9055 6.35 22.2055 6.35C20.4055 6.35 18.8055 6.71667 17.4055 7.45C16.0055 8.18333 14.8221 9.16667 13.8555 10.4C12.8888 11.6333 12.1388 13.0167 11.6055 14.55C11.1055 16.0833 10.8555 17.65 10.8555 19.25ZM90.1531 1.5V37H84.5031V21.35H66.6031V37H61.0031V1.5H66.6031V16.35H84.5031V1.5H90.1531ZM128.911 37.25C126.345 37.25 124.028 36.75 121.961 35.75C119.895 34.75 118.111 33.4 116.611 31.7C115.111 29.9667 113.945 28.0333 113.111 25.9C112.311 23.7333 111.911 21.5167 111.911 19.25C111.911 16.8833 112.345 14.6333 113.211 12.5C114.078 10.3333 115.278 8.41667 116.811 6.75C118.345 5.05 120.145 3.71667 122.211 2.75C124.311 1.75 126.578 1.25 129.011 1.25C131.545 1.25 133.845 1.76667 135.911 2.8C138.011 3.83333 139.795 5.21666 141.261 6.95C142.761 8.68333 143.911 10.6167 144.711 12.75C145.545 14.8833 145.961 17.0667 145.961 19.3C145.961 21.6667 145.528 23.9333 144.661 26.1C143.828 28.2333 142.645 30.15 141.111 31.85C139.578 33.5167 137.761 34.8333 135.661 35.8C133.595 36.7667 131.345 37.25 128.911 37.25ZM117.611 19.25C117.611 20.9167 117.878 22.5333 118.411 24.1C118.945 25.6667 119.695 27.0667 120.661 28.3C121.661 29.5 122.861 30.45 124.261 31.15C125.661 31.85 127.228 32.2 128.961 32.2C130.761 32.2 132.361 31.8333 133.761 31.1C135.161 30.3667 136.328 29.3833 137.261 28.15C138.228 26.8833 138.961 25.4833 139.461 23.95C139.961 22.3833 140.211 20.8167 140.211 19.25C140.211 17.5833 139.945 15.9833 139.411 14.45C138.911 12.8833 138.161 11.5 137.161 10.3C136.161 9.06666 134.961 8.1 133.561 7.4C132.195 6.7 130.661 6.35 128.961 6.35C127.161 6.35 125.561 6.71667 124.161 7.45C122.761 8.18333 121.578 9.16667 120.611 10.4C119.645 11.6333 118.895 13.0167 118.361 14.55C117.861 16.0833 117.611 17.65 117.611 19.25ZM33.716 41.45H21.916V72H16.266V41.45H4.41602V36.5H33.716V41.45ZM68.3266 67.05V72H43.9766V36.5H67.8766V41.45H49.5766V51.55H65.4266V56.2H49.5766V67.05H68.3266ZM79.6535 72V36.5H104.604V41.4H85.2535V51.35H95.6535C99.5869 51.35 102.537 52.2833 104.504 54.15C106.47 55.9833 107.454 58.4167 107.454 61.45C107.454 63.4833 107.02 65.3 106.154 66.9C105.32 68.4667 104.054 69.7167 102.354 70.65C100.687 71.55 98.5702 72 96.0035 72H79.6535ZM85.2535 67.1H95.2535C96.7869 67.1 98.0202 66.8167 98.9535 66.25C99.9202 65.6833 100.604 64.9667 101.004 64.1C101.437 63.2 101.654 62.2667 101.654 61.3C101.654 60.3333 101.47 59.4333 101.104 58.6C100.737 57.7667 100.07 57.1 99.1035 56.6C98.1702 56.0667 96.8535 55.8 95.1535 55.8H85.2535V67.1ZM142.559 67.05V72H118.209V36.5H142.109V41.45H123.809V51.55H139.659V56.2H123.809V67.05H142.559ZM33.5914 71.5V107H27.9414V91.35H10.0414V107H4.44141V71.5H10.0414V86.35H27.9414V71.5H33.5914ZM52.8496 71.5H58.1496L71.9496 107H66.0496L62.2996 97.35H48.5996L44.8996 107H38.9496L52.8496 71.5ZM61.1996 93.2L55.4996 77.65L49.5996 93.2H61.1996ZM71.7399 113.8V102.05H73.4399C74.3732 102.05 75.1732 101.683 75.8399 100.95C76.5399 100.217 77.1232 99.05 77.5899 97.45C78.0899 95.85 78.4732 93.75 78.7399 91.15C79.0399 88.5167 79.2565 85.3 79.3899 81.5L79.6399 71.5H102.49V102.05H106.99V113.8H102.04V107H76.6899V113.8H71.7399ZM80.5399 102.05H96.8399V76.45H84.8399L84.6899 82.25C84.5899 86.0833 84.3899 89.3333 84.0899 92C83.7899 94.6333 83.3565 96.7667 82.7899 98.4C82.2232 100.033 81.4732 101.25 80.5399 102.05ZM128.713 107.25C126.146 107.25 123.83 106.75 121.763 105.75C119.696 104.75 117.913 103.4 116.413 101.7C114.913 99.9667 113.746 98.0333 112.913 95.9C112.113 93.7333 111.713 91.5167 111.713 89.25C111.713 86.8833 112.146 84.6333 113.013 82.5C113.88 80.3333 115.08 78.4167 116.613 76.75C118.146 75.05 119.946 73.7167 122.013 72.75C124.113 71.75 126.38 71.25 128.813 71.25C131.346 71.25 133.646 71.7667 135.713 72.8C137.813 73.8333 139.596 75.2167 141.063 76.95C142.563 78.6833 143.713 80.6167 144.513 82.75C145.346 84.8833 145.763 87.0667 145.763 89.3C145.763 91.6667 145.33 93.9333 144.463 96.1C143.63 98.2333 142.446 100.15 140.913 101.85C139.38 103.517 137.563 104.833 135.463 105.8C133.396 106.767 131.146 107.25 128.713 107.25ZM117.413 89.25C117.413 90.9167 117.68 92.5333 118.213 94.1C118.746 95.6667 119.496 97.0667 120.463 98.3C121.463 99.5 122.663 100.45 124.063 101.15C125.463 101.85 127.03 102.2 128.763 102.2C130.563 102.2 132.163 101.833 133.563 101.1C134.963 100.367 136.13 99.3833 137.063 98.15C138.03 96.8833 138.763 95.4833 139.263 93.95C139.763 92.3833 140.013 90.8167 140.013 89.25C140.013 87.5833 139.746 85.9833 139.213 84.45C138.713 82.8833 137.963 81.5 136.963 80.3C135.963 79.0667 134.763 78.1 133.363 77.4C131.996 76.7 130.463 76.35 128.763 76.35C126.963 76.35 125.363 76.7167 123.963 77.45C122.563 78.1833 121.38 79.1667 120.413 80.4C119.446 81.6333 118.696 83.0167 118.163 84.55C117.663 86.0833 117.413 87.65 117.413 89.25Z" fill="white"/>
</svg>
